X:1
T:Fiſhing for Men
C:T. S. Macdonald
L:1/8
M:C|
K:G
A | BdcA BG G/G/G | DGB,D G,B,DB | cedB cA A/A/A | EA^CE A,CEA |
    BdcA BG G/G/G | DGB,D G,B,DB | cBAG FAdc | BAGF G3 ||
d | gbaf gd d/d/d | ecAG FA A/A/A | BGdB ecAG | FAdc BGGd |
    gbaf gd d/d/d | ecAG FADC | B,DGB cBAG | FAdc BGG |]

